X: 45
T: Walker Street (Carpenter's Reel)
O: Trad
B: Cole p.45
Z: John Chambers <jc:trillian.mit.edu>
M: C|
L: 1/8
K: G
|: "G"~G2 BG [dD]GBG | "D7"ABcd cBAG | "G"BdgB dgBd | "C"cBAG "D7"FDEF |
|  "G"~G2 BG [dD]GBG | "D7"ABcd cBAG | "G"BdgB dgBd | "D7"cAFD "G"G4 :|
((3d/e/f/ |: "G"g2)dg Bgdg | gabg "D7"agef | "G"g2dg Bgdg | "C"cBAG "D7"Fdef |
|  "G"g2dg Bgdg | gabg "D7"agef | "C"gfga "(G)"gfed | "C"eg"D7"fa "G"g4 :|
%%sep 2 1 500
